X:1
T:Title
%%score 1 2 3 4
L:1/8
Q:1/4=75
M:2/2
K:Bb
V:1 bass nm="Baryton, Bas                                 " snm="Bar."
V:2 bass nm="Varhany, B.c.(Org)                           " snm="Varh."
V:3 bass nm="Kontrabas, B.c.(Vc)                            " snm="Kb."
V:4 bass-8 nm="Akustická basová kytara, B.c.(Cont)                          " snm="Bas"
V:1
 z8 | z8 | z8 | z8 | z8 | z8 | z8 | z8 | z2 z G, C2 C,2 | (D,/E,/) (F,/G,/) _A,A, A,G, z2 | %10
w: ||||||||O Men- schen,|die * ihr * täg- lich sün- digt,|
 (^F,/G,/) (A,/=B,/) CC CB, z2 | z8 | z8 | z8 | z2 z G, C2 C,2 | %15
w: die * ihr * täg- lich sün- digt,||||o Men- schen,|
 (D,/E,/F,/G,/_A,) (G,/F,/) (=E,/F,/G,/A,/B,)(=A,/G,/) | (^F,/G,/A,/=B,/ C3) B, z D | %17
w: die * * * * ihr * täg- * * * * lich *|sün- * * * * digt, ihr|
 F, _A, G,F, (G,/F,/E,/G,/ C,/D,/E,/F,/ | G,/A,/B,/G,/ A,/G,/F,/A,/ D,/=E,/^F,/G,/ A,/B,/C/A,/ | %19
w: sollt der En- gel Freu- * * * * * * *||
 B,/A,/G,/B,/ E,/F,/G,/A,/ B,/C/D/B,/ C/B,/A,/C/ | ^F,/G,/A,/B,/ C/D/E/C/ DC/B,/ D/C/)(B,/A,/) | %21
w: |* * * * * * * * * * * * * de *|
 G,2 z2 z2 z G, | C2 C,2 (D,/E,/F,/G,/_A,) (G,/F,/) | %23
w: sein, o|Men- schen, die * * * * ihr *|
 (=E,/^F,/G,/A,/B,)(A,/G,/) (F,/G,/A,/=B,/ C2- | C)=B, z B, (C/B,/A,/G,/E) C | %25
w: täg- * * * * lich * sün- * * * *|* digt, ihr sollt * * * * der|
 A,F, (F,G,/A,/ B,/A,/G,/F,/D)B, | G,2 z G, C2 C,2 | (=E,/F,/) (G,/_A,/) (B,3 C/B,/ A,/G,/F,/_E,/ | %28
w: En- gel Freu- * * * * * * * de|sein, o Men- schen,|die * ihr * täg- * * * * * *|
 D,/E,/F,/G,/_A,)A, A,G, z D | F, F, (F,/_A,/G,/F,/ D)F, (F,/E,/D,/E,/ | %30
w: * * * * * lich sün- digt, ihr|sollt der En- * * * * gel Freu- * * *|
 F,/_A,/G,/F,/D)F, C=B, z G, | E z =B, z (C/_B,/_A,/G,/ F,/E,/D,/C,/ | _A,)G, E,(D,/C,/) C,2 z D | %33
w: * * * * * de sein , ihr|sollt der En- * * * * * * *|* gel Freu- de * sein, ihr|
 F, F, (F,/_A,/G,/F,/ D)F, (F,/E,/D,/E,/ | F,/_A,/G,/F,/ D/C/)(=B,/C/) (CB,) z G, | %35
w: sollt der En- * * * * gel Freu- * * *|* * * * * * de * sein , ihr|
 E z =B, z (C/_B,/_A,/G,/ F,/E,/D,/C,/ | _A,)G, E,(D,/C,/) C,2 z2 | z8 | z8 | z8 | z8 | z8 | z8 | %43
w: sollt der En- * * * * * * *|* gel Freu- de * sein.|||||||
 z8 | z4 z2 z (E,/F,/) | (_A,/G,/F,/E,/B,)B, (B,/E/D/C/ B,/A,/G,/F,/ | %46
w: |Ihr *|ju- * * * * bi- li- * * * * * * *|
 _A,/G,/)(F,/E,/) B, B, B,2 z (F,/G,/) | (B,/_A,/G,/F,/C) C (CC,/D,/ =E,/F,/G,/A,/ | %48
w: * * ren * des Ge- schrei, dass *|Gott * * * * mit euch * * * * * *|
 B,/_A,/) (G,/F,/)_DF, =E,2 z C | (B,C) (_DC) (=E,G,)(_A,G,) | B,,2 z F, (=E,G,) (B,_A,) | %51
w: * * ver- * söh- net sei, hat|euch * den * sü- * ssen *|Trost, hat euch * den *|
 (_A,/G,/F,/G,/ A,/B,/C/A,/ _D)C B,2- | B, C (=E,/B,/_A,/G,/ A,)(G,/A,/F,) z | z8 | z8 | %55
w: sü- * * * * * * * * ssen Trost|* ver- kün- * * * * digt * ,|||
 z C, (_A,/G,/F,/=E,/ F,)C, (A,/G,/F,/E,/ | F,)C, (B,/_A,/) (G,/F,/) B,2 z2 | %57
w: ihr ju- * * * * bi- li- * * *|* ren des * Ge- * schrei,|
 z E, (_D/C/B,/_A,/ B,) E, (D/C/B,/A,/ | B,) E, (_D,/C,/)D, C,2 z F, | (D,_A,) (CB,) B,3 (A,/G,/) | %60
w: dass Gott * * * * mit euch * * *|* ver- söh- * net sei, hat|euch * den * sü- ssen *|
 (_A,F,) (CB,) (D,3 E,/F,/ | G,/_A,/B,/A,/ G,/A,/F,/A,/ G,/B,/C/D/EE, | %62
w: Trost * ver- * kün- * *||
 _A,/C/B,/A,/G,F,/E,/) E, G, C2- | C(B,/A,/) _G,2 z2 z A, | C, C, (C,/E,/D,/C,/ ^F,)D, C A, | %65
w: * * * * * * * digt, den sü-|* ssen * Trost, hat|euch den sü- * * * * ssen Trost ver-|
 (B,/C/D/C/ B,/C/A,/B,/ G,/A,/B,/A,/ G,/A,/^F,/G,/ | C,/B,/A,/G,/ B,/A,/G,/^F,/ G,)G,, z2 | z8 | %68
w: kün- * * * * * * * * * * * * * * *|* * * * * * * * * digt.||
 z8 | z8 | z8 | z8 | z8 | z8 | z8 | z2 z G, C2 C,2 | (D,/E,/) (F,/G,/) _A,A, A,G, z2 | %77
w: |||||||O Men- schen,|die * ihr * täg- lich sün- digt,|
 (^F,/G,/) (A,/=B,/) CC CB, z2 | z8 | z8 | z8 | z2 z G, C2 C,2 | %82
w: die * ihr * täg- lich sün- digt,||||o Men- schen,|
 (D,/E,/F,/G,/_A,) (G,/F,/) (=E,/F,/G,/A,/B,)(=A,/G,/) | (^F,/G,/A,/=B,/ C3) B, z D | %84
w: die * * * * ihr * täg- * * * * lich *|sün- * * * * digt, ihr|
 F, _A, G,F, (G,/F,/E,/G,/ C,/D,/E,/F,/ | G,/A,/B,/G,/ A,/G,/F,/A,/ D,/=E,/^F,/G,/ A,/B,/C/A,/ | %86
w: sollt der En- gel Freu- * * * * * * *||
 B,/A,/G,/B,/ E,/F,/G,/A,/ B,/C/D/B,/ C/B,/A,/C/ | ^F,/G,/A,/B,/ C/D/E/C/ DC/B,/ D/C/)(B,/A,/) | %88
w: |* * * * * * * * * * * * * de *|
 G,2 z2 z2 z G, | C2 C,2 (D,/E,/F,/G,/_A,) (G,/F,/) | %90
w: sein, o|Men- schen, die * * * * ihr *|
 (=E,/^F,/G,/A,/B,)(A,/G,/) (F,/G,/A,/=B,/ C2- | C)=B, z B, (C/B,/A,/G,/E) C | %92
w: täg- * * * * lich * sün- * * * *|* digt, ihr sollt * * * * der|
 A,F, (F,G,/A,/ B,/A,/G,/F,/D)B, | G,2 z G, C2 C,2 | %94
w: En- gel Freu- * * * * * * * de|sein, o Men- schen,|
 (=E,/F,/) (G,/_A,/) (B,2- B,C/B,/ A,/G,/F,/_E,/ | D,/E,/F,/G,/_A,)A, A,G, z D | %96
w: die * ihr * täg- * * * * * * *|* * * * * lich sün- digt, ihr|
 F, F, (F,/_A,/G,/F,/ D)F, (F,/E,/D,/E,/ | F,/_A,/G,/F,/D)F, (C=B,) z G, | %98
w: sollt der En- * * * * gel Freu- * * *|* * * * * de sein, * ihr|
 E z =B, z (C/_B,/_A,/G,/ F,/E,/D,/C,/ | _A,)G, E,(D,/C,/) C,2 z D | %100
w: sollt der En- * * * * * * *|* gel Freu- de * sein, ihr|
 F, F, (F,/_A,/G,/F,/ D)F, (F,/E,/D,/E,/ | F,/_A,/G,/F,/ D/C/)(=B,/C/) (CB,) z G, | %102
w: sollt der En- * * * * gel Freu- * * *|* * * * * * de * sein , ihr|
 E z =B, z (C/_B,/_A,/G,/ F,/E,/D,/C,/ | _A,)G, E,(D,/C,/) C,2 z2 | z8 | z8 | z8 | z8 | z8 | z8 | %110
w: sollt der En- * * * * * * *|* gel Freu- de * sein.|||||||
 z8[Q:1/4=74][Q:1/4=73][Q:1/4=72][Q:1/4=71][Q:1/4=70][Q:1/4=69] | %111
w: |
 z8[Q:1/4=68][Q:1/4=67][Q:1/4=66][Q:1/4=64][Q:1/4=63][Q:1/4=62][Q:1/4=60][Q:1/4=58][Q:1/4=56][Q:1/4=53][Q:1/4=51][Q:1/4=48][Q:1/4=43][Q:1/4=40][Q:1/4=36][Q:1/4=30] |] %112
w: |
V:2
 z2 z/ G,/A,/=B,/ C2 C,2 | D,/E,/F,/G,/_A,G,/F,/ =E,/F,/G,/A,/B,A,/G,/ | %2
 ^F,/G,/A,/=B,/CB,/A,/ B, .G,2 _B,/C/ | _DB,=E,F,/G,/ _A,F,F,,F,/G,/ | %4
 _A,F,=B,,C,/D,/ E,C,C,,=B,/C/ | D=B,F,D,/E,/ F,D,G,,B,/C/ | D=B,F,D,/E,/ F,D,G,,A,,/=B,,/ | %7
 C,/D,/E,/F,/ G,/A,/=B,/G,/ C>_B, _A,/G,/F,/E,/ | D,/C,/=B,,/C,/G,G,, .C,3 D,/E,/ | %9
 F,D,=B,,C,/D,/ E,C,C,,_G,/=G,/ | A,_G,D,=E,/G,/ =G,D,G,,=B,/C/ | D=B,F,D,/E,/ F,D,G,,B,/C/ | %12
 D=B,F,D,/E,/ F,D,G,,A,,/=B,,/ | C,/D,/E,/F,/ G,/A,/=B,/G,/ C>_B, _A,/G,/F,/E,/ | %14
 D,/C,/=B,,/C,/G,G,, .C,3 D,/E,/ | F,D,G,,A,,/=B,,/ C,G,,C,,_G,/=G,/ | %16
 A,_G,D,=E,/G,/ =G,D,G,,F,/G,/ | _A,F,=B,,C,/D,/ E,C,C,,C,/D,/ | E,C, .F,2 z D,/=E,/_G,D, | %19
 .G,3 E,/F,/ G,E, .A,2 | z _G,/=G,/A,_G, B,=G,DD, | G,,2 z/ D,/=E,/_G,/ =G,2 G,,2 | %22
 A,,/B,,/C,/D,/E,D,/C,/ =B,,/C,/D,/E,/F,=E,/D,/ | _D,/=D,/=E,/_G,/=G,_G,/E,/ G, .D,2 F,/=G,/ | %24
 _A,F,=B,,C,/D,/ E,C, C,,/C,/D,/E,/ | F,C, F,,/F,/G,/A,/ B,F,B,,C,/D,/ | %26
 E,B,, E,,/E,/F,/G,/ _A,E, _A,,/A,/B,/C/ | _DB,=E,F,/G,/ _A,F,F,,F,/G,/ | %28
 _A,F,=B,,C,/D,/ E,C,C,,=B,/C/ | D=B,F,D,/E,/ F,D,G,,B,/C/ | D=B,F,D,/E,/ F,D,G,,A,,/=B,,/ | %31
 C,/D,/E,/F,/ G,/A,/=B,/G,/ C>_B, _A,/G,/F,/E,/ | D,/C,/=B,,/C,/G,G,, C,/D,/E,/F,/ G,/A,/=B,/C/ | %33
 D=B,F,D,/E,/ F,D,G,,B,/C/ | D=B,F,D,/E,/ F,D,G,,A,,/=B,,/ | %35
 C,/D,/E,/F,/ G,/A,/=B,/G,/ C>_B, _A,/G,/F,/E,/ | D,/C,/=B,,/C,/ G,,/G,/A,/=B,/ C2 C,2 | %37
 D,/E,/F,/G,/_A,G,/F,/ =E,/F,/G,/A,/B,A,/G,/ | _G,/=G,/A,/=B,/CB,/A,/ B, .G,2 _B,/C/ | %39
 _DB,=E,F,/G,/ _A,F,F,,F,/G,/ | _A,F,=B,,C,/D,/ E,C,C,,=B,/C/ | D=B,F,D,/E,/ F,D,G,,B,/C/ | %42
 D=B,F,D,/E,/ F,D,G,,A,,/=B,,/ | C,/D,/E,/F,/ G,/A,/=B,/G,/ C>_B, _A,/G,/F,/E,/ | %44
 D,/C,/=B,,/C,/G,G,, .C,,4 | z2 z/ B,,/C,/D,/ E,2 E,,2 | %46
 D,/E,/F,/G,/_A,G,/F,/ E,/F,/G,/A,/B,A,/G,/ | F,2 z/ C,/D,/=E,/ F,2 F,,2 | %48
 =E,/F,/G,/_A,/B,A,/G,/ CB,/A,/ G,/F,/E,/F,/ | G,=E,B,,G,,/_A,,/ B,,G,,C,,E,/F,/ | %50
 G,=E,B,,G,,/_A,,/ B,,G,,C,,D,,/=E,,/ | F,,/G,,/_A,,/B,,/ C,/D,/=E,/C,/ F,>_E, _D,/C,/B,,/A,,/ | %52
 G,,/F,,/=E,,/F,,/C,C,, F,,2 z/ C,/D,/=E,/ | F,2 F,,2 G,,/_A,,/B,,/C,/_D,C,/B,,/ | %54
 A,,/B,,/C,/D,/E,D,/C,/ =B,,/C,/D,/=E,/F,E,/D,/ | =E, .C,2 F,/G,/ _A,F,C,F,/G,/ | %56
 _A,F,C,B,,/C,/ _D,B,,F,,G,,/_A,,/ | B,,G,,E,,B,,/C,/ _D,B,,G,,B,,/C,/ | %58
 _D,B,,E,,F,,/G,,/ _A,,_A,/G,/ F,/E,/=D,/E,/ | F,D,_A,,F,,/G,,/ A,,F,,D,,D,/E,/ | %60
 F,D,_A,,F,,/G,,/ A,,F,,D,,C,,/D,,/ | E,,/F,,/G,,/_A,,/ B,,/C,/D,/B,,/ E,>D, C,/B,,/A,,/G,,/ | %62
 F,,/E,,/D,,/E,,/B,,B,, .E,,3 _G,/=G,/ | A,_G,C,A,,/B,,/ C,A,,D,,G,/=G,/ | %64
 A,_G,C,A,,/B,,/ C,A,,D,,=E,,/E,,/ | G,,/A,,/B,,/C,/ D,/=E,/_G,/D,/ =G,>F, _E,/D,/C,/B,,/ | %66
 _A,,/G,,/_G,,/=G,,/D,D,, .G,,4 | z2 z/ G,/A,/=B,/ C2 C,2 | %68
 D,/E,/F,/G,/_A,G,/F,/ =E,/F,/G,/A,/B,A,/G,/ | _G,/=G,/A,/=B,/CB,/A,/ B, .G,2 _B,/C/ | %70
 _DB,=E,F,/G,/ _A,F,F,,F,/G,/ | _A,F,=B,,C,/D,/ E,C,C,,=B,/C/ | D=B,F,D,/E,/ F,D,G,,B,/C/ | %73
 D=B,F,D,/E,/ F,D,G,,A,,/=B,,/ | C,/D,/E,/F,/ G,/A,/=B,/G,/ C>_B, _A,/G,/F,/E,/ | %75
 D,/C,/=B,,/C,/G,G,, .C,3 D,/E,/ | F,D,=B,,C,/D,/ E,C,C,,_G,/=G,/ | A,_G,D,=E,/G,/ =G,D,G,,=B,/C/ | %78
 D=B,F,D,/E,/ F,D,G,,B,/C/ | D=B,F,D,/E,/ F,D,G,,A,,/=B,,/ | %80
 C,/D,/E,/F,/ G,/A,/=B,/G,/ C>_B, _A,/G,/F,/E,/ | D,/C,/=B,,/C,/G,G,, .C,3 D,/E,/ | %82
 F,D,G,,A,,/=B,,/ C,G,,C,,_G,/=G,/ | A,_G,D,=E,/G,/ =G,D,G,,F,/G,/ | %84
 _A,F,=B,,C,/D,/ E,C,C,,C,/D,/ | E,C, .F,2 z D,/=E,/_G,D, | .G,3 E,/F,/ G,E, .A,2 | %87
 z _G,/=G,/A,_G, B,=G,DD, | G,,2 z/ D,/=E,/_G,/ =G,2 G,,2 | %89
 A,,/B,,/C,/D,/E,D,/C,/ =B,,/C,/D,/E,/F,=E,/D,/ | _D,/=D,/=E,/_G,/=G,_G,/E,/ G, .D,2 F,/=G,/ | %91
 _A,F,=B,,C,/D,/ E,C, C,,/C,/D,/E,/ | F,C, F,,/F,/G,/A,/ B,F,B,,C,/D,/ | %93
 E,B,, E,,/E,/F,/G,/ _A,E, _A,,/A,/B,/C/ | _DB,=E,F,/G,/ _A,F,F,,F,/G,/ | %95
 _A,F,=B,,C,/D,/ E,C,C,,=B,/C/ | D=B,F,D,/E,/ F,D,G,,B,/C/ | D=B,F,D,/E,/ F,D,G,,A,,/=B,,/ | %98
 C,/D,/E,/F,/ G,/A,/=B,/G,/ C>_B, _A,/G,/F,/E,/ | D,/C,/=B,,/C,/G,G,, C,/D,/E,/F,/ G,/A,/=B,/C/ | %100
 D=B,F,D,/E,/ F,D,G,,B,/C/ | D=B,F,D,/E,/ F,D,G,,A,,/=B,,/ | %102
 C,/D,/E,/F,/ G,/A,/=B,/G,/ C>_B, _A,/G,/F,/E,/ | D,/C,/=B,,/C,/ G,,/G,/A,/=B,/ C2 C,2 | %104
 D,/E,/F,/G,/_A,G,/F,/ =E,/F,/G,/A,/B,A,/G,/ | _G,/=G,/A,/=B,/CB,/A,/ B, .G,2 _B,/C/ | %106
 _DB,=E,F,/G,/ _A,F,F,,F,/G,/ | _A,F,=B,,C,/D,/ E,C,C,,=B,/C/ | D=B,F,D,/E,/ F,D,G,,B,/C/ | %109
 D=B,F,D,/E,/ F,D,G,,A,,/=B,,/ | C,/D,/E,/F,/ G,/A,/=B,/G,/ C>_B, _A,/G,/F,/E,/ | %111
 D,/C,/=B,,/C,/G,G,, C,,4 |] %112
V:3
 z2 z/ G,/A,/=B,/ C2 C,2 | D,/E,/F,/G,/_A,G,/F,/ =E,/F,/G,/A,/B,A,/G,/ | %2
 ^F,/G,/A,/=B,/CB,/A,/ B, .G,2 _B,/C/ | _DB,=E,F,/G,/ _A,F,F,,F,/G,/ | %4
 _A,F,=B,,C,/D,/ E,C,C,,=B,/C/ | D=B,F,D,/E,/ F,D,G,,B,/C/ | D=B,F,D,/E,/ F,D,G,,A,,/=B,,/ | %7
 C,/D,/E,/F,/ G,/A,/=B,/G,/ C>_B, _A,/G,/F,/E,/ | D,/C,/=B,,/C,/G,G,, .C,3 D,/E,/ | %9
 F,D,=B,,C,/D,/ E,C,C,,_G,/=G,/ | A,_G,D,=E,/G,/ =G,D,G,,=B,/C/ | D=B,F,D,/E,/ F,D,G,,B,/C/ | %12
 D=B,F,D,/E,/ F,D,G,,A,,/=B,,/ | C,/D,/E,/F,/ G,/A,/=B,/G,/ C>_B, _A,/G,/F,/E,/ | %14
 D,/C,/=B,,/C,/G,G,, .C,3 D,/E,/ | F,D,G,,A,,/=B,,/ C,G,,C,,_G,/=G,/ | %16
 A,_G,D,=E,/G,/ =G,D,G,,F,/G,/ | _A,F,=B,,C,/D,/ E,C,C,,C,/D,/ | E,C, .F,2 z D,/=E,/_G,D, | %19
 .G,3 E,/F,/ G,E, .A,2 | z _G,/=G,/A,_G, B,=G,DD, | G,,2 z/ D,/=E,/_G,/ =G,2 G,,2 | %22
 A,,/B,,/C,/D,/E,D,/C,/ =B,,/C,/D,/E,/F,=E,/D,/ | _D,/=D,/=E,/_G,/=G,_G,/E,/ G, .D,2 F,/=G,/ | %24
 _A,F,=B,,C,/D,/ E,C, C,,/C,/D,/E,/ | F,C, F,,/F,/G,/A,/ B,F,B,,C,/D,/ | %26
 E,B,, E,,/E,/F,/G,/ _A,E, _A,,/A,/B,/C/ | _DB,=E,F,/G,/ _A,F,F,,F,/G,/ | %28
 _A,F,=B,,C,/D,/ E,C,C,,=B,/C/ | D=B,F,D,/E,/ F,D,G,,B,/C/ | D=B,F,D,/E,/ F,D,G,,A,,/=B,,/ | %31
 C,/D,/E,/F,/ G,/A,/=B,/G,/ C>_B, _A,/G,/F,/E,/ | D,/C,/=B,,/C,/G,G,, C,/D,/E,/F,/ G,/A,/=B,/C/ | %33
 D=B,F,D,/E,/ F,D,G,,B,/C/ | D=B,F,D,/E,/ F,D,G,,A,,/=B,,/ | %35
 C,/D,/E,/F,/ G,/A,/=B,/G,/ C>_B, _A,/G,/F,/E,/ | D,/C,/=B,,/C,/ G,,/G,/A,/=B,/ C2 C,2 | %37
 D,/E,/F,/G,/_A,G,/F,/ =E,/F,/G,/A,/B,A,/G,/ | _G,/=G,/A,/=B,/CB,/A,/ B, .G,2 _B,/C/ | %39
 _DB,=E,F,/G,/ _A,F,F,,F,/G,/ | _A,F,=B,,C,/D,/ E,C,C,,=B,/C/ | D=B,F,D,/E,/ F,D,G,,B,/C/ | %42
 D=B,F,D,/E,/ F,D,G,,A,,/=B,,/ | C,/D,/E,/F,/ G,/A,/=B,/G,/ C>_B, _A,/G,/F,/E,/ | %44
 D,/C,/=B,,/C,/G,G,, .C,,4 | z2 z/ B,,/C,/D,/ E,2 E,,2 | %46
 D,/E,/F,/G,/_A,G,/F,/ E,/F,/G,/A,/B,A,/G,/ | F,2 z/ C,/D,/=E,/ F,2 F,,2 | %48
 =E,/F,/G,/_A,/B,A,/G,/ CB,/A,/ G,/F,/E,/F,/ | G,=E,B,,G,,/_A,,/ B,,G,,C,,E,/F,/ | %50
 G,=E,B,,G,,/_A,,/ B,,G,,C,,D,,/=E,,/ | F,,/G,,/_A,,/B,,/ C,/D,/=E,/C,/ F,>_E, _D,/C,/B,,/A,,/ | %52
 G,,/F,,/=E,,/F,,/C,C,, F,,2 z/ C,/D,/=E,/ | F,2 F,,2 G,,/_A,,/B,,/C,/_D,C,/B,,/ | %54
 A,,/B,,/C,/D,/E,D,/C,/ =B,,/C,/D,/=E,/F,E,/D,/ | =E, .C,2 F,/G,/ _A,F,C,F,/G,/ | %56
 _A,F,C,B,,/C,/ _D,B,,F,,G,,/_A,,/ | B,,G,,E,,B,,/C,/ _D,B,,G,,B,,/C,/ | %58
 _D,B,,E,,F,,/G,,/ _A,,_A,/G,/ F,/E,/=D,/E,/ | F,D,_A,,F,,/G,,/ A,,F,,D,,D,/E,/ | %60
 F,D,_A,,F,,/G,,/ A,,F,,D,,C,,/D,,/ | E,,/F,,/G,,/_A,,/ B,,/C,/D,/B,,/ E,>D, C,/B,,/A,,/G,,/ | %62
 F,,/E,,/D,,/E,,/B,,B,, .E,,3 _G,/=G,/ | A,_G,C,A,,/B,,/ C,A,,D,,G,/=G,/ | %64
 A,_G,C,A,,/B,,/ C,A,,D,,=E,,/E,,/ | G,,/A,,/B,,/C,/ D,/=E,/_G,/D,/ =G,>F, _E,/D,/C,/B,,/ | %66
 _A,,/G,,/_G,,/=G,,/D,D,, .G,,4 | z2 z/ G,/A,/=B,/ C2 C,2 | %68
 D,/E,/F,/G,/_A,G,/F,/ =E,/F,/G,/A,/B,A,/G,/ | _G,/=G,/A,/=B,/CB,/A,/ B, .G,2 _B,/C/ | %70
 _DB,=E,F,/G,/ _A,F,F,,F,/G,/ | _A,F,=B,,C,/D,/ E,C,C,,=B,/C/ | D=B,F,D,/E,/ F,D,G,,B,/C/ | %73
 D=B,F,D,/E,/ F,D,G,,A,,/=B,,/ | C,/D,/E,/F,/ G,/A,/=B,/G,/ C>_B, _A,/G,/F,/E,/ | %75
 D,/C,/=B,,/C,/G,G,, .C,3 D,/E,/ | F,D,=B,,C,/D,/ E,C,C,,_G,/=G,/ | A,_G,D,=E,/G,/ =G,D,G,,=B,/C/ | %78
 D=B,F,D,/E,/ F,D,G,,B,/C/ | D=B,F,D,/E,/ F,D,G,,A,,/=B,,/ | %80
 C,/D,/E,/F,/ G,/A,/=B,/G,/ C>_B, _A,/G,/F,/E,/ | D,/C,/=B,,/C,/G,G,, .C,3 D,/E,/ | %82
 F,D,G,,A,,/=B,,/ C,G,,C,,_G,/=G,/ | A,_G,D,=E,/G,/ =G,D,G,,F,/G,/ | %84
 _A,F,=B,,C,/D,/ E,C,C,,C,/D,/ | E,C, .F,2 z D,/=E,/_G,D, | .G,3 E,/F,/ G,E, .A,2 | %87
 z _G,/=G,/A,_G, B,=G,DD, | G,,2 z/ D,/=E,/_G,/ =G,2 G,,2 | %89
 A,,/B,,/C,/D,/E,D,/C,/ =B,,/C,/D,/E,/F,=E,/D,/ | _D,/=D,/=E,/_G,/=G,_G,/E,/ G, .D,2 F,/=G,/ | %91
 _A,F,=B,,C,/D,/ E,C, C,,/C,/D,/E,/ | F,C, F,,/F,/G,/A,/ B,F,B,,C,/D,/ | %93
 E,B,, E,,/E,/F,/G,/ _A,E, _A,,/A,/B,/C/ | _DB,=E,F,/G,/ _A,F,F,,F,/G,/ | %95
 _A,F,=B,,C,/D,/ E,C,C,,=B,/C/ | D=B,F,D,/E,/ F,D,G,,B,/C/ | D=B,F,D,/E,/ F,D,G,,A,,/=B,,/ | %98
 C,/D,/E,/F,/ G,/A,/=B,/G,/ C>_B, _A,/G,/F,/E,/ | D,/C,/=B,,/C,/G,G,, C,/D,/E,/F,/ G,/A,/=B,/C/ | %100
 D=B,F,D,/E,/ F,D,G,,B,/C/ | D=B,F,D,/E,/ F,D,G,,A,,/=B,,/ | %102
 C,/D,/E,/F,/ G,/A,/=B,/G,/ C>_B, _A,/G,/F,/E,/ | D,/C,/=B,,/C,/ G,,/G,/A,/=B,/ C2 C,2 | %104
 D,/E,/F,/G,/_A,G,/F,/ =E,/F,/G,/A,/B,A,/G,/ | _G,/=G,/A,/=B,/CB,/A,/ B, .G,2 _B,/C/ | %106
 _DB,=E,F,/G,/ _A,F,F,,F,/G,/ | _A,F,=B,,C,/D,/ E,C,C,,=B,/C/ | D=B,F,D,/E,/ F,D,G,,B,/C/ | %109
 D=B,F,D,/E,/ F,D,G,,A,,/=B,,/ | C,/D,/E,/F,/ G,/A,/=B,/G,/ C>_B, _A,/G,/F,/E,/ | %111
 D,/C,/=B,,/C,/G,G,, C,,4 |] %112
V:4
 z2 z/ G,/A,/=B,/ C2 C,2 | D,/E,/F,/G,/_A,G,/F,/ =E,/F,/G,/A,/B,A,/G,/ | %2
 ^F,/G,/A,/=B,/CB,/A,/ B, .G,2 _B,/C/ | _DB,=E,F,/G,/ _A,F,F,,F,/G,/ | %4
 _A,F,=B,,C,/D,/ E,C,C,,=B,/C/ | D=B,F,D,/E,/ F,D,G,,B,/C/ | D=B,F,D,/E,/ F,D,G,,A,,/=B,,/ | %7
 C,/D,/E,/F,/ G,/A,/=B,/G,/ C>_B, _A,/G,/F,/E,/ | D,/C,/=B,,/C,/G,G,, .C,3 D,/E,/ | %9
 F,D,=B,,C,/D,/ E,C,C,,_G,/=G,/ | A,_G,D,=E,/G,/ =G,D,G,,=B,/C/ | D=B,F,D,/E,/ F,D,G,,B,/C/ | %12
 D=B,F,D,/E,/ F,D,G,,A,,/=B,,/ | C,/D,/E,/F,/ G,/A,/=B,/G,/ C>_B, _A,/G,/F,/E,/ | %14
 D,/C,/=B,,/C,/G,G,, .C,3 D,/E,/ | F,D,G,,A,,/=B,,/ C,G,,C,,_G,/=G,/ | %16
 A,_G,D,=E,/G,/ =G,D,G,,F,/G,/ | _A,F,=B,,C,/D,/ E,C,C,,C,/D,/ | E,C, .F,2 z D,/=E,/_G,D, | %19
 .G,3 E,/F,/ G,E, .A,2 | z _G,/=G,/A,_G, B,=G,DD, | G,,2 z/ D,/=E,/_G,/ =G,2 G,,2 | %22
 A,,/B,,/C,/D,/E,D,/C,/ =B,,/C,/D,/E,/F,=E,/D,/ | _D,/=D,/=E,/_G,/=G,_G,/E,/ G, .D,2 F,/=G,/ | %24
 _A,F,=B,,C,/D,/ E,C, C,,/C,/D,/E,/ | F,C, F,,/F,/G,/A,/ B,F,B,,C,/D,/ | %26
 E,B,, E,,/E,/F,/G,/ _A,E, _A,,/A,/B,/C/ | _DB,=E,F,/G,/ _A,F,F,,F,/G,/ | %28
 _A,F,=B,,C,/D,/ E,C,C,,=B,/C/ | D=B,F,D,/E,/ F,D,G,,B,/C/ | D=B,F,D,/E,/ F,D,G,,A,,/=B,,/ | %31
 C,/D,/E,/F,/ G,/A,/=B,/G,/ C>_B, _A,/G,/F,/E,/ | D,/C,/=B,,/C,/G,G,, C,/D,/E,/F,/ G,/A,/=B,/C/ | %33
 D=B,F,D,/E,/ F,D,G,,B,/C/ | D=B,F,D,/E,/ F,D,G,,A,,/=B,,/ | %35
 C,/D,/E,/F,/ G,/A,/=B,/G,/ C>_B, _A,/G,/F,/E,/ | D,/C,/=B,,/C,/ G,,/G,/A,/=B,/ C2 C,2 | %37
 D,/E,/F,/G,/_A,G,/F,/ =E,/F,/G,/A,/B,A,/G,/ | _G,/=G,/A,/=B,/CB,/A,/ B, .G,2 _B,/C/ | %39
 _DB,=E,F,/G,/ _A,F,F,,F,/G,/ | _A,F,=B,,C,/D,/ E,C,C,,=B,/C/ | D=B,F,D,/E,/ F,D,G,,B,/C/ | %42
 D=B,F,D,/E,/ F,D,G,,A,,/=B,,/ | C,/D,/E,/F,/ G,/A,/=B,/G,/ C>_B, _A,/G,/F,/E,/ | %44
 D,/C,/=B,,/C,/G,G,, .C,,4 | z2 z/ B,,/C,/D,/ E,2 E,,2 | %46
 D,/E,/F,/G,/_A,G,/F,/ E,/F,/G,/A,/B,A,/G,/ | F,2 z/ C,/D,/=E,/ F,2 F,,2 | %48
 =E,/F,/G,/_A,/B,A,/G,/ CB,/A,/ G,/F,/E,/F,/ | G,=E,B,,G,,/_A,,/ B,,G,,C,,E,/F,/ | %50
 G,=E,B,,G,,/_A,,/ B,,G,,C,,D,,/=E,,/ | F,,/G,,/_A,,/B,,/ C,/D,/=E,/C,/ F,>_E, _D,/C,/B,,/A,,/ | %52
 G,,/F,,/=E,,/F,,/C,C,, F,,2 z/ C,/D,/=E,/ | F,2 F,,2 G,,/_A,,/B,,/C,/_D,C,/B,,/ | %54
 A,,/B,,/C,/D,/E,D,/C,/ =B,,/C,/D,/=E,/F,E,/D,/ | =E, .C,2 F,/G,/ _A,F,C,F,/G,/ | %56
 _A,F,C,B,,/C,/ _D,B,,F,,G,,/_A,,/ | B,,G,,E,,B,,/C,/ _D,B,,G,,B,,/C,/ | %58
 _D,B,,E,,F,,/G,,/ _A,,_A,/G,/ F,/E,/=D,/E,/ | F,D,_A,,F,,/G,,/ A,,F,,D,,D,/E,/ | %60
 F,D,_A,,F,,/G,,/ A,,F,,D,,C,,/D,,/ | E,,/F,,/G,,/_A,,/ B,,/C,/D,/B,,/ E,>D, C,/B,,/A,,/G,,/ | %62
 F,,/E,,/D,,/E,,/B,,B,, .E,,3 _G,/=G,/ | A,_G,C,A,,/B,,/ C,A,,D,,G,/=G,/ | %64
 A,_G,C,A,,/B,,/ C,A,,D,,=E,,/E,,/ | G,,/A,,/B,,/C,/ D,/=E,/_G,/D,/ =G,>F, _E,/D,/C,/B,,/ | %66
 _A,,/G,,/_G,,/=G,,/D,D,, .G,,4 | z2 z/ G,/A,/=B,/ C2 C,2 | %68
 D,/E,/F,/G,/_A,G,/F,/ =E,/F,/G,/A,/B,A,/G,/ | _G,/=G,/A,/=B,/CB,/A,/ B, .G,2 _B,/C/ | %70
 _DB,=E,F,/G,/ _A,F,F,,F,/G,/ | _A,F,=B,,C,/D,/ E,C,C,,=B,/C/ | D=B,F,D,/E,/ F,D,G,,B,/C/ | %73
 D=B,F,D,/E,/ F,D,G,,A,,/=B,,/ | C,/D,/E,/F,/ G,/A,/=B,/G,/ C>_B, _A,/G,/F,/E,/ | %75
 D,/C,/=B,,/C,/G,G,, .C,3 D,/E,/ | F,D,=B,,C,/D,/ E,C,C,,_G,/=G,/ | A,_G,D,=E,/G,/ =G,D,G,,=B,/C/ | %78
 D=B,F,D,/E,/ F,D,G,,B,/C/ | D=B,F,D,/E,/ F,D,G,,A,,/=B,,/ | %80
 C,/D,/E,/F,/ G,/A,/=B,/G,/ C>_B, _A,/G,/F,/E,/ | D,/C,/=B,,/C,/G,G,, .C,3 D,/E,/ | %82
 F,D,G,,A,,/=B,,/ C,G,,C,,_G,/=G,/ | A,_G,D,=E,/G,/ =G,D,G,,F,/G,/ | %84
 _A,F,=B,,C,/D,/ E,C,C,,C,/D,/ | E,C, .F,2 z D,/=E,/_G,D, | .G,3 E,/F,/ G,E, .A,2 | %87
 z _G,/=G,/A,_G, B,=G,DD, | G,,2 z/ D,/=E,/_G,/ =G,2 G,,2 | %89
 A,,/B,,/C,/D,/E,D,/C,/ =B,,/C,/D,/E,/F,=E,/D,/ | _D,/=D,/=E,/_G,/=G,_G,/E,/ G, .D,2 F,/=G,/ | %91
 _A,F,=B,,C,/D,/ E,C, C,,/C,/D,/E,/ | F,C, F,,/F,/G,/A,/ B,F,B,,C,/D,/ | %93
 E,B,, E,,/E,/F,/G,/ _A,E, _A,,/A,/B,/C/ | _DB,=E,F,/G,/ _A,F,F,,F,/G,/ | %95
 _A,F,=B,,C,/D,/ E,C,C,,=B,/C/ | D=B,F,D,/E,/ F,D,G,,B,/C/ | D=B,F,D,/E,/ F,D,G,,A,,/=B,,/ | %98
 C,/D,/E,/F,/ G,/A,/=B,/G,/ C>_B, _A,/G,/F,/E,/ | D,/C,/=B,,/C,/G,G,, C,/D,/E,/F,/ G,/A,/=B,/C/ | %100
 D=B,F,D,/E,/ F,D,G,,B,/C/ | D=B,F,D,/E,/ F,D,G,,A,,/=B,,/ | %102
 C,/D,/E,/F,/ G,/A,/=B,/G,/ C>_B, _A,/G,/F,/E,/ | D,/C,/=B,,/C,/ G,,/G,/A,/=B,/ C2 C,2 | %104
 D,/E,/F,/G,/_A,G,/F,/ =E,/F,/G,/A,/B,A,/G,/ | _G,/=G,/A,/=B,/CB,/A,/ B, .G,2 _B,/C/ | %106
 _DB,=E,F,/G,/ _A,F,F,,F,/G,/ | _A,F,=B,,C,/D,/ E,C,C,,=B,/C/ | D=B,F,D,/E,/ F,D,G,,B,/C/ | %109
 D=B,F,D,/E,/ F,D,G,,A,,/=B,,/ | C,/D,/E,/F,/ G,/A,/=B,/G,/ C>_B, _A,/G,/F,/E,/ | %111
 D,/C,/=B,,/C,/G,G,, C,,4 |] %112

